packages/core/src/svgs/tokens/mono/XRD.svg

<svg width="24" height="24" viewBox="0 0 24 24" fill="none" xmlns="http://www.w3.org/2000/svg">
<path d="M2 13.1794V10.8264H5.08234C5.36469 10.8264 5.6294 10.9499 5.79411 11.1793L9.31766 16.1675L14.7059 4.28523C14.7757 4.13143 14.8881 4.0009 15.0299 3.90913C15.1718 3.81737 15.337 3.76825 15.5059 3.76758H22V6.12052H16.4412L10.2823 19.8852C10.2401 19.9791 10.174 20.0604 10.0907 20.1208C10.0072 20.1812 9.90936 20.2186 9.80697 20.2293C9.70444 20.24 9.60109 20.2237 9.50693 20.1818C9.41277 20.1401 9.33124 20.0742 9.27058 19.9911L4.57646 13.1794H2Z" fill="white"/>
</svg>

<svg xmlns="http://www.w3.org/2000/svg" width="24" height="24" fill="none" viewBox="0 0 24 24">
    <path fill="#fff" d="M2 13.18v-2.354h3.082c.283 0 .547.124.712.353l3.524 4.989 5.388-11.883a.88.88 0 0 1 .8-.517H22V6.12h-5.559l-6.159 13.764a.59.59 0 0 1-1.011.106l-4.695-6.81z"/>
</svg>
